X:2984
T:CHIP AND RANT
B:John of the Greeny Cheshire Way
N:© John Offord, Reproduced with permission
M:3/2
L:1/8
K:G
P:1
gdBd gfgd cBAG | gdBd gabg agfe | gdBd gfgd cBAG | ABcd ecBA BdBG :|
P:2
gaba gfed cBAG | gabg afed ef g2| gaba gfed cBAG | ABcd ecBA BdBG :|
P:3
g2 fe dBGB dBGB| gfge dBGB ABcd | g2 fe dBGB dBGB| ABcd ecBA BdBG :|


